X: 7
T: Toss The Feathers
R: reel
M: 4/4
L: 1/8
K: Edor
FBBB dBBA | FBBA FEFA |BEEE BABc |dffe dBAG |
EBBB d2BA |FBBA FEFA|BEEE BABc| dffe dBAG:|
Beed e2de |fede fe e2|feb2 fede|fede fe e2|
Beed efge|fede fa a2| abba faaf| effe dBA2:|


Tune 113	Setting 12702

